svg/water_treatment_outline.svg

<?xml version="1.0" encoding="UTF-8" standalone="no"?>
<!-- Created with Inkscape (http://www.inkscape.org/) -->
<svg id="svg8" xmlns:rdf="http://www.w3.org/1999/02/22-rdf-syntax-ns#" xmlns="http://www.w3.org/2000/svg" xmlns:osb="http://www.openswatchbook.org/uri/2009/osb" height="48" width="48" version="1.1" xmlns:cc="http://creativecommons.org/ns#" viewBox="0 0 12.7 12.7" xmlns:dc="http://purl.org/dc/elements/1.1/">
 <title id="title4753">UIO-icon</title>
 <metadata id="metadata5">
  <rdf:RDF>
   <cc:Work rdf:about="">
    <dc:format>image/svg+xml</dc:format>
    <dc:type rdf:resource="http://purl.org/dc/dcmitype/StillImage"/>
    <dc:title>UIO-icon</dc:title>
    <dc:creator>
     <cc:Agent>
      <dc:title>Joaquín Urbano</dc:title>
     </cc:Agent>
    </dc:creator>
    <dc:rights>
     <cc:Agent>
      <dc:title>GPL</dc:title>
     </cc:Agent>
    </dc:rights>
   </cc:Work>
  </rdf:RDF>
 </metadata>
 <g id="layer1" transform="translate(0,-284.3)" fill="#333">
  <path id="path4816" d="m22.916 6.1973c-9.254 0.3527-16.671 7.7787-17.012 17.033l-1.7673 0.239 4.2852 6.293 2.4611-7.205-1.465 0.199c0.5711-7.186 6.426-12.809 13.629-13.088 5.742-0.2122 11.048 3.05 13.449 8.27l3.307-1.102c-2.902-6.684-9.605-10.908-16.887-10.639zm-0.182 0.5273c6.174 0.0813 12.202 2.0799 16.368 9.8184l-2.313 0.754c-3.291-5.947-8.648-8.3587-13.873-8.1661-8.103 0.5341-13.712 6.2781-14.06 14.238l1.271-0.199-1.8692 5.445-3.2246-4.746 1.3516-0.18c0.6746-11.505 10.049-16.695 16.349-16.964zm0.778 4.3754c-0.011-0.003-0.02-0.002-0.026 0.007 0 0-3.199 3.904-3.199 6.186s1.442 4.134 3.223 4.135c1.782 0 3.227-1.852 3.226-4.135 0.001-2.212-2.88-6.112-3.224-6.189v-0.004zm0.027 0.777c1.275 1.321 2.597 4.023 2.674 5.34 0.099 1.689-1.181 3.667-2.664 3.672-1.644 0.06-2.788-2.035-2.713-3.629 0.067-1.426 1.256-3.683 2.703-5.383zm15.441 6.824l-2.734 7.106 1.473-0.143c-0.844 7.159-6.909 12.555-14.117 12.561-5.746-0.006-10.924-3.468-13.125-8.776l-3.3461 0.977c2.6461 6.79 9.1831 11.263 16.471 11.271 9.26-0.001 16.954-7.14 17.646-16.375l1.775-0.17-4.043-6.451zm0.12 1.151l3.043 4.865-1.358 0.129c-1.111 11.471-10.676 16.302-16.982 16.332-6.166-0.316-12.114-2.543-15.983-10.434l2.34-0.666c3.063 6.068 8.324 8.682 13.553 8.688 8.117-0.226 13.939-5.752 14.59-13.694l-1.278 0.151 2.075-5.371z" transform="matrix(.26458 0 0 .26458 0 284.3)"/>
  <path id="path3002" d="m4.5475 290.61c-0.005552 0.0000511-0.010729 0.00458-0.010852 0.013436-0.013274 0.29924-0.25961 0.535-0.55914 0.53537-0.29967-0.000174-0.54637-0.23599-0.55966-0.53537h-0.0020672c0.0047331 1.651 1.4039 2.8179 2.8443 2.821 1.5383-0.00761 2.845-1.2512 2.8432-2.821h-0.0010335c-0.013274 0.29923-0.25961 0.535-0.55914 0.53537-0.29967-0.0001741-0.54638-0.23599-0.55966-0.53537-0.004382-0.018122-0.018275-0.018122-0.022738 0-0.013274 0.29923-0.25961 0.535-0.55914 0.53537-0.29967-0.0001741-0.54637-0.23599-0.55966-0.53537-0.002918-0.018122-0.018865-0.018122-0.022738 0-0.013274 0.29923-0.25961 0.535-0.55914 0.53537-0.29971-0.0001434-0.54637-0.23596-0.55966-0.53537-0.00092181-0.00921-0.005585-0.013436-0.010852-0.013436-0.005304 0-0.011002 0.00504-0.011886 0.013436-0.013266 0.29924-0.25961 0.535-0.55914 0.53537-0.29967-0.000174-0.54585-0.23598-0.55914-0.53537-0.00053763-0.00906-0.0063325-0.013487-0.011885-0.013436zm3.4328 0.412c0.034322-0.00167 0.26929 0.27465 0.52022 0.27183 0.13744 0.013248 0.19284-0.016142 0.43005-0.13149-0.38582 1.5675-1.6918 2.095-2.7008 2.146-1.0059-0.069356-2.1717-0.45986-2.6154-2.1082 0.15384 0.081787 0.15164 0.090627 0.38137 0.090734 0.32075-0.021683 0.52327-0.2692 0.55053-0.26987 0.027915-0.0006796 0.22485 0.23665 0.52815 0.27282 0.37172 0.01695 0.51191-0.24148 0.61728-0.24277 0.11836-0.00145 0.10888 0.14059 0.51987 0.24568 0.41603 0.026264 0.55408-0.2817 0.62866-0.2852 0.050791-0.00239 0.25137 0.28225 0.52603 0.28225 0.30841 0.024965 0.52978-0.26773 0.61401-0.27182z"/>
 </g>
</svg>

<svg width="48" height="48" viewBox="0 0 48 48" fill="none" xmlns="http://www.w3.org/2000/svg">
<path d="M22.9158 6.19719C13.6619 6.54989 6.24499 13.9758 5.904 23.23L4.13672 23.469L8.42186 29.7619L10.8829 22.557L9.41795 22.756C9.98905 15.5701 15.8439 9.94715 23.0468 9.66815C28.7887 9.45595 34.0946 12.7181 36.4956 17.938L39.8026 16.8361C36.9006 10.1521 30.1977 5.9282 22.9158 6.19719ZM22.7338 6.72449C28.9077 6.80578 34.9356 8.80436 39.1016 16.5428L36.7886 17.2968C33.4977 11.3498 28.1407 8.93816 22.9158 9.13076C14.8129 9.66485 9.20396 15.4088 8.85596 23.3686L10.1269 23.1696L8.25777 28.6145L5.03321 23.8686L6.38479 23.6886C7.05938 12.1837 16.4339 6.99348 22.7338 6.72449ZM23.5118 11.0998C23.5008 11.0968 23.4918 11.0978 23.4858 11.1068C23.4858 11.1068 20.2868 15.0108 20.2868 17.2928C20.2868 19.5747 21.7288 21.4267 23.5098 21.4277C25.2918 21.4277 26.7367 19.5757 26.7357 17.2928C26.7367 15.0808 23.8558 11.1808 23.5118 11.1038V11.0998ZM23.5388 11.8768C24.8138 13.1978 26.1357 15.8998 26.2127 17.2168C26.3117 18.9057 25.0318 20.8837 23.5488 20.8887C21.9048 20.9487 20.7608 18.8537 20.8358 17.2598C20.9028 15.8338 22.0918 13.5768 23.5388 11.8768ZM38.9796 18.7007L36.2456 25.8066L37.7186 25.6637C36.8746 32.8226 30.8097 38.2185 23.6018 38.2245C17.8558 38.2185 12.6779 34.7565 10.4769 29.4486L7.13088 30.4256C9.77695 37.2155 16.3139 41.6884 23.6017 41.6964C32.8616 41.6954 40.5555 34.5565 41.2475 25.3217L43.0224 25.1517L38.9796 18.7007ZM39.0996 19.8517L42.1425 24.7167L40.7846 24.8457C39.6736 36.3165 30.1087 41.1475 23.8028 41.1775C17.6369 40.8615 11.6889 38.6345 7.81997 30.7436L10.1599 30.0776C13.2229 36.1455 18.4838 38.7595 23.7128 38.7655C31.8297 38.5395 37.6516 33.0136 38.3026 25.0717L37.0246 25.2227L39.0996 19.8517Z" fill="#333333"/>
<path d="M17.1875 23.8489C17.1665 23.8491 17.147 23.8663 17.1465 23.8998C17.0963 25.0307 16.1653 25.9218 15.0332 25.9232C13.9006 25.9225 12.9682 25.0313 12.918 23.8998H12.9102C12.928 30.1398 18.2162 34.55 23.6603 34.5617C29.4743 34.533 34.413 29.8329 34.4062 23.8998H34.4023C34.3521 25.0307 33.4211 25.9218 32.289 25.9232C31.1564 25.9225 30.224 25.0313 30.1738 23.8998C30.1572 23.8313 30.1047 23.8313 30.0878 23.8998C30.0377 25.0307 29.1066 25.9218 27.9746 25.9232C26.8419 25.9225 25.9095 25.0313 25.8593 23.8998C25.8483 23.8313 25.788 23.8313 25.7734 23.8998C25.7232 25.0307 24.7922 25.9218 23.6601 25.9232C22.5273 25.9227 21.5951 25.0314 21.5448 23.8998C21.5413 23.8649 21.5237 23.8489 21.5038 23.8489C21.4838 23.8489 21.4622 23.868 21.4589 23.8998C21.4088 25.0307 20.4777 25.9218 19.3456 25.9232C18.213 25.9225 17.2826 25.0313 17.2323 23.8998C17.2303 23.8655 17.2085 23.8487 17.1875 23.8489ZM30.1619 25.4061C30.2916 25.3998 31.1797 26.4441 32.1281 26.4335C32.6475 26.4835 32.8569 26.3725 33.7535 25.9366C32.2952 31.861 27.3593 33.8547 23.5457 34.0474C19.7439 33.7853 15.3377 32.3093 13.6607 26.0794C14.2422 26.3885 14.2339 26.4219 15.1021 26.4223C16.3144 26.3403 17.0798 25.4049 17.1829 25.4023C17.2884 25.3997 18.0327 26.2968 19.179 26.4335C20.584 26.4975 21.1138 25.5208 21.5121 25.5159C21.9594 25.5105 21.9236 26.0472 23.4769 26.4444C25.0493 26.5437 25.5711 25.3798 25.853 25.3666C26.0449 25.3575 26.803 26.4334 27.8411 26.4334C29.0067 26.5277 29.8435 25.4216 30.1619 25.4061Z" fill="#333333"/>
</svg>
